X:1
T:Title
%%score { ( 1 3 ) | ( 2 4 ) }
L:1/8
M:4/4
K:D
V:1 treble nm="Grand Piano"
V:3 treble 
V:2 bass 
V:4 bass 
V:1
 z4 z2[Q:1/4=110] D2 | F2 F2 F2 [EG]2 | [FA]2 [Fd]2 B2 G2 | F4 [CE]3 [CA] |[M:3/4] F6 |[M:1/4] D2 | %6
[M:4/4] F2 F2 F2 [EG]2 | [FA]2 [Fd]2 [GB]2 [B,EG]2 | [DF]4[K:bass] [G,CE]3 [G,CE] |[M:3/4] [F,D]6 | %10
[M:1/4][K:treble] [DFA]2 |[M:4/4] [Fd]6[K:bass][K:treble] z2 | [Fe]2 [Fd]2 [DFA]4 | [DGB]6 [DFA]2 | %14
 [DGB]2 [Gd]2 [FA]4 | [Fd]6[K:bass][K:treble] z2 | [Fe]2 [Fd]2 [DFA]2 [DGB]2 | %17
 [DF]4[K:bass] [A,CE]3 [G,CE] |[M:3/4] [F,D]6 |[M:1/4][K:treble] [DFA]2 | %20
[M:4/4] [Fd]6[K:bass][K:treble] z2 | [Fe]2 [Fd]2 [DFA]4 | [DGB]6 [DFA]2 | [DGB]2 [Gd]2 [FA]4 | %24
 [Fd]6[K:bass][K:treble] z2 | [Fe]2 [Fd]2 [DFA]2 [DGB]2 | [DF]4[K:bass] [A,CE]3 [G,CE] | %27
[M:3/4] [F,D]6 |] %28
V:2
 z4 z2 [D,F,]2 | [D,A,D]2 [D,A,D]2 [D,A,D]2 [D,A,]2 | [D,D]2 [D,A,]2[K:treble] [G,G]2 [G,B,E]2 | %3
 [A,D]4 [A,,A,]3 [A,,A,] |[M:3/4] [D,A,D]6 |[M:1/4] [D,F,]2 | %6
[M:4/4] [D,A,D]2 [D,A,D]2 [D,A,D]2 [D,A,]2 | [D,D]2 [D,A,]2 G,2 G,2 | A,4 A,,3 A,, |[M:3/4] D,6 | %10
[M:1/4] D,2 |[M:4/4] A,6 z2 | [D,A,]2 [D,A,]2 D,4 | G,2 G,2 G,2 D,2 | G,2 [G,B,]2 [D,D]4 | A,6 z2 | %16
 [D,A,]2 [D,A,]2 D,2 G,2 | A,4 A,,3 A,, |[M:3/4] D,6 |[M:1/4] D,2 |[M:4/4] A,6 z2 | %21
 [D,A,]2 [D,A,]2 D,4 | G,2 G,2 G,2 D,2 | G,2 [G,B,]2 [D,D]4 | A,6 z2 | [D,A,]2 [D,A,]2 D,2 G,2 | %26
 A,4 A,,3 A,, |[M:3/4] D,6 |] %28
V:3
 x8 | x8 | x8 | x8 |[M:3/4] x6 |[M:1/4] x2 |[M:4/4] x8 | x8 | x4[K:bass] x4 |[M:3/4] x6 | %10
[M:1/4][K:treble] x2 |[M:4/4] z2[K:bass] D,2 D,2[K:treble] [Fd]2 | x8 | x8 | x8 | %15
 z2[K:bass] D,2 D,2[K:treble] [Fd]2 | x8 | x4[K:bass] x4 |[M:3/4] x6 |[M:1/4][K:treble] x2 | %20
[M:4/4] z2[K:bass] D,2 D,2[K:treble] [Fd]2 | x8 | x8 | x8 | z2[K:bass] D,2 D,2[K:treble] [Fd]2 | %25
 x8 | x4[K:bass] x4 |[M:3/4] x6 |] %28
V:4
 x8 | x8 | x4[K:treble] x4 | x8 |[M:3/4] x6 |[M:1/4] x2 |[M:4/4] x8 | x8 | x8 |[M:3/4] x6 | %10
[M:1/4] x2 |[M:4/4] D,2 z2 z2 [D,A,]2 | x8 | x8 | x8 | D,2 z2 z2 [D,A,]2 | x8 | x8 |[M:3/4] x6 | %19
[M:1/4] x2 |[M:4/4] D,2 z2 z2 [D,A,]2 | x8 | x8 | x8 | D,2 z2 z2 [D,A,]2 | x8 | x8 |[M:3/4] x6 |] %28

